X: 1
T: Sitting On The Throne
R: reel
M: 4/4
L: 1/8
K: Amaj
|:A2 eA fAeA|B2fB gBfB|c2 gc acgc|d2 ad bdad|
|A2 eA fAeA|B2 fB gBcB|AcFG AB c/B/A|1 BdcB AFFG:|2 BdcB AFFE||
|:FccB c^deg|fcfg agfe|gccB c^def|g2 fe gafe|
|fccB c^deg|fcfg agfg|ecBA GABd|cdBc AFFE:||
|:A2 eA fAec|ABcA (3Bcd cA|B~E3 Bdcd|BAFG AFEG|
|A2 eA fAec|ABce a2 ga|bgaf gbaf|e^def ge=dB:||